X: 22557
T: Lady Madelina Sinclair
R: strathspey
M: 4/4
K: Gmajor
|:e/|d<GB>G (3Bcd e2|d>G e/d/c/B/ A2- A>e|
d<GB>G B<d g2|d>cB<A G2- G3/2:|
e/4f/4|g>de>d (3efg (3fga|g>dg<B A2- A3/2 e4/f4/|
g>de>d e>gf<a|g/f/e/d/ g<B G2- G3/2 e/4f/4|
g>ef>d (3ed^c d>B|c<aB<g A2- A>c|
(3Bcd e>G (3Bcd g>G|d<gB>A G2- G3/2||

